public/images/icons/avatar.svg

<svg viewBox="0 0 42.72 39.82" xmlns="http://www.w3.org/2000/svg" xmlns:xlink="http://www.w3.org/1999/xlink"><g fill="#fff"><path d="m4.91 15.89a.81.81 0 0 1 -.42-.12l-4.07-2.34a.86.86 0 0 1 -.31-1.16.84.84 0 0 1 1.16-.27l4.07 2.3a.85.85 0 0 1 -.43 1.59z"/><path d="m11.87 8.93a.85.85 0 0 1 -.74-.42l-2.35-4.07a.85.85 0 0 1 1.47-.84l2.35 4.06a.86.86 0 0 1 -.31 1.16.8.8 0 0 1 -.42.11z"/><path d="m21.36 6.39a.85.85 0 0 1 -.85-.85v-4.69a.85.85 0 1 1 1.7 0v4.69a.85.85 0 0 1 -.85.85z"/><path d="m30.86 8.93a.84.84 0 0 1 -.43-.11.86.86 0 0 1 -.31-1.16l2.35-4.06a.85.85 0 0 1 1.47.84l-2.35 4.07a.84.84 0 0 1 -.73.42z"/><path d="m37.81 15.89a.85.85 0 0 1 -.42-1.59l4.06-2.3a.84.84 0 0 1 1.16.31.85.85 0 0 1 -.31 1.16l-4.07 2.34a.81.81 0 0 1 -.42.08z"/></g><image height="28" transform="translate(10.98 10.53)" width="21" xlink:href="data:image/png;base64,iVBORw0KGgoAAAANSUhEUgAAABUAAAAcCAYAAACOGPReAAAACXBIWXMAAAsSAAALEgHS3X78AAABK0lEQVRIS63VMVLDMBCF4c8JJBVXYChTcQluzVloOAAFBcwkODGFrLHiyIoUeI3k0er3W6121A3DoFGlDR2sCgFzDcrAGFMNXYJ1s5gTdBXp5wJSWNQ7vvB9l1lMNQfmYFGv49iXnLYA4cV47ktOW4HwGSc1haoBMhYJck6vVm5BPdZcQm9JO6qPk1L1W4BwMJpKobemDY8CFN6WCtXqcj+OByanf3FJgHUy6Ue1unwYxx98UC5UrXrByNk9TVNvdbkVYBGM/3EKR1Oxqtp0SdulhVuhm9n3XqIUWnue986fljMg7Wda1YEt6a9dPn4HGaXQUlfNfz4Ilz2rmvRzwGMuMCq34XmcPwktuE7WuAIkQOdV77BL1iPspALI5DSCdyZnK+E+biR9XaNfm3BIYjrRBEAAAAAASUVORK5CYII="/><image height="32" transform="translate(5.98 8.53)" width="31" xlink:href="data:image/png;base64,iVBORw0KGgoAAAANSUhEUgAAAB8AAAAgCAYAAADqgqNBAAAACXBIWXMAAAsSAAALEgHS3X78AAABtElEQVRIS8WXW0oDMRSGv5nGOtSqVERFH9UHt+E+3IPuxgX54ItuoyCCIIhF0PHhJDbJ5FLbSftB6UzmJOeWZv5WbdvyT26BMTAAFFADI+AQuEnM66ByBppr4ATYQ5wBVAG7B22zBVwFnjvknF8C2/p6Zo2PmAcBMAQOgC9r7AWZu0+EmPNjZPEffT8DPoEGuI/MAcl8iFudlnCVqAI9n+jvBllkB+nxs2+YYIpk3DB33AnAdz6ZXzJAejdlefzMnABSPf8GXhPPF8GU3eC0wN40dtYAb/SDX+6/YIzzUo4NwQ1nZ27o23GIFsS5n3UpOtn7mZfO2g6grfVAsCelqZFjcZwzLEGNHKUDype8g3kdXuQMS6CQF8FGUMAu3TN4LZgN1wB3GdveUYhCgQ2UXwFHrK/3Tntr5Gd2CpwBj6EZhaiMmHhCMh8B58kpq2FnXhkx0SDSVwEfiHTqG8cxuDLqHZFNSn/6PO+DcsrXcEnNtSTRNUNiwmbVwyeZjO88lOkyAbQsUMWQevUVJ959qhWxQINzYtLZGIcW+28losHm/qulgsiR3aw55wZHe0WtFnBo8wtM10WO4v/MMgAAAABJRU5ErkJggg=="/><image height="24" transform="translate(6.98 12.53)" width="29" xlink:href="data:image/png;base64,iVBORw0KGgoAAAANSUhEUgAAAB0AAAAYCAYAAAAGXva8AAAACXBIWXMAAAsSAAALEgHS3X78AAABn0lEQVRIS7WWO07EMBCGPycBFi1INBRIVCCBxD04APeggI4b0FIi7Rk4ByU9NRIVEiABC3mYYmY22ayziXaTT7Imjh+/Zzx24rz3BLgC3oEpkAI54IEC+AW+1WbAU2iCZSS1+i3wiQjtIpOm9UHIAiK1p2qfA/2CVEXvEJGR2gJwwENtzLm25Vr3Wo6RCLzSgtPw3iOT5MjAm2WDKpwhC/TAl9qplp+mQc57P0FWDhLKy6bOLRwgC04ptyS0NURIODe1vqoglGH1FVvPGUBErZjwOnywGNYF4QTYR/bjot64BinzYjFl4hGpHdM/mVoLd2wNFtYN4JH+ycrHmTgJw3jZRAQUCeJpjGTxEOSU2wiIpztqYyShhvC8QJwrgMhupDd9uUU/RyfEntrI0nqMeGuXuAuNWpPZ9pnoiPKCh2GEt9EMrh5g89LoW/gQ+AOyuawKEPzCr8gJcAQkruHPof6yD489cA28NIlapzqrilfncsvCGxKwv4SuBPsHv3cVHGGRtvA3LcxBuyjMH6Mmung/W1gXUaPqTRcRY2Gb/gFc3W7IPqjnYgAAAABJRU5ErkJggg=="/><image height="22" transform="translate(6.98 13.53)" width="29" xlink:href="data:image/png;base64,iVBORw0KGgoAAAANSUhEUgAAAB0AAAAWCAYAAAA8VJfMAAAACXBIWXMAAAsSAAALEgHS3X78AAABnElEQVRIS7XVP28TQRAF8N8Zk8QhAQlRIVoKPgWio6KiQ5SInpYvggQFDVUKanpES4NESQ9CRJAcWGAfxezizcV3/suTTrtev7m3b3Z2rmqaxgb4iKsYYR8XOnhV+WPYQVqEI1zBb5ymtf1uuuysYjXRl7iIQRrz7k9wueBVZiJtNKiWFX2BaXoq4RC+4fYc/pl0am2iWnCmz8QLBunZSeODvqA5yCKv0PQ5fYIfZqlr8LCb3osKT9O8U/Q+vuKSEJ3icQd3WdR6CukufgmhU5uLZfyR9NpnelO4uyEq9PW50PXwSLjcwaB0eogv2MUx3p6PXRu1MDPG8yx6YFZhx/gwJ3Bd3EtjLbL3L70HBenE9nBHtMZDcZ5HxJ37n/iexho/8+JQ5Dpjmy5vieKpRQG9yX/kM93oU9PC9WJeY4J3JWHb6b0mRIi7PsH7NmnZhr8IZaucCDNjfJpHHto8tXtmQlNRrRN87gpoOx0pqqwHux3rU/G560W+p6NibVrMx2nsEskYWG6zONt796yX6rEV0W74ixxlrCxU4i/odl+FanRguQAAAABJRU5ErkJggg=="/></svg>

<svg xmlns="http://www.w3.org/2000/svg" xmlns:xlink="http://www.w3.org/1999/xlink" viewBox="0 0 42.72 39.82"><defs><style>.cls-1{fill:#fff;}</style></defs><title>Avatar</title><g id="Layer_2" data-name="Layer 2"><g id="DESIGN_2" data-name="DESIGN 2"><g id="Avatar"><g id="Rays"><path class="cls-1" d="M4.91,15.89a.81.81,0,0,1-.42-.12L.42,13.43a.86.86,0,0,1-.31-1.16A.84.84,0,0,1,1.27,12L5.34,14.3a.85.85,0,0,1-.43,1.59Z"/><path class="cls-1" d="M11.87,8.93a.85.85,0,0,1-.74-.42L8.78,4.44a.85.85,0,0,1,1.47-.84L12.6,7.66a.86.86,0,0,1-.31,1.16A.8.8,0,0,1,11.87,8.93Z"/><path class="cls-1" d="M21.36,6.39a.85.85,0,0,1-.85-.85V.85a.85.85,0,1,1,1.7,0V5.54A.85.85,0,0,1,21.36,6.39Z"/><path class="cls-1" d="M30.86,8.93a.84.84,0,0,1-.43-.11.86.86,0,0,1-.31-1.16L32.47,3.6a.85.85,0,0,1,1.47.84L31.59,8.51A.84.84,0,0,1,30.86,8.93Z"/><path class="cls-1" d="M37.81,15.89a.85.85,0,0,1-.42-1.59L41.45,12a.84.84,0,0,1,1.16.31.85.85,0,0,1-.31,1.16l-4.07,2.34A.81.81,0,0,1,37.81,15.89Z"/></g><g id="Ovals"><image width="21" height="28" transform="translate(10.98 10.53)" xlink:href="data:image/png;base64,iVBORw0KGgoAAAANSUhEUgAAABUAAAAcCAYAAACOGPReAAAACXBIWXMAAAsSAAALEgHS3X78AAABK0lEQVRIS63VMVLDMBCF4c8JJBVXYChTcQluzVloOAAFBcwkODGFrLHiyIoUeI3k0er3W6121A3DoFGlDR2sCgFzDcrAGFMNXYJ1s5gTdBXp5wJSWNQ7vvB9l1lMNQfmYFGv49iXnLYA4cV47ktOW4HwGSc1haoBMhYJck6vVm5BPdZcQm9JO6qPk1L1W4BwMJpKobemDY8CFN6WCtXqcj+OByanf3FJgHUy6Ue1unwYxx98UC5UrXrByNk9TVNvdbkVYBGM/3EKR1Oxqtp0SdulhVuhm9n3XqIUWnue986fljMg7Wda1YEt6a9dPn4HGaXQUlfNfz4Ilz2rmvRzwGMuMCq34XmcPwktuE7WuAIkQOdV77BL1iPspALI5DSCdyZnK+E+biR9XaNfm3BIYjrRBEAAAAAASUVORK5CYII="/><image width="31" height="32" transform="translate(5.98 8.53)" xlink:href="data:image/png;base64,iVBORw0KGgoAAAANSUhEUgAAAB8AAAAgCAYAAADqgqNBAAAACXBIWXMAAAsSAAALEgHS3X78AAABtElEQVRIS8WXW0oDMRSGv5nGOtSqVERFH9UHt+E+3IPuxgX54ItuoyCCIIhF0PHhJDbJ5FLbSftB6UzmJOeWZv5WbdvyT26BMTAAFFADI+AQuEnM66ByBppr4ATYQ5wBVAG7B22zBVwFnjvknF8C2/p6Zo2PmAcBMAQOgC9r7AWZu0+EmPNjZPEffT8DPoEGuI/MAcl8iFudlnCVqAI9n+jvBllkB+nxs2+YYIpk3DB33AnAdz6ZXzJAejdlefzMnABSPf8GXhPPF8GU3eC0wN40dtYAb/SDX+6/YIzzUo4NwQ1nZ27o23GIFsS5n3UpOtn7mZfO2g6grfVAsCelqZFjcZwzLEGNHKUDype8g3kdXuQMS6CQF8FGUMAu3TN4LZgN1wB3GdveUYhCgQ2UXwFHrK/3Tntr5Gd2CpwBj6EZhaiMmHhCMh8B58kpq2FnXhkx0SDSVwEfiHTqG8cxuDLqHZFNSn/6PO+DcsrXcEnNtSTRNUNiwmbVwyeZjO88lOkyAbQsUMWQevUVJ959qhWxQINzYtLZGIcW+28losHm/qulgsiR3aw55wZHe0WtFnBo8wtM10WO4v/MMgAAAABJRU5ErkJggg=="/><image width="29" height="24" transform="translate(6.98 12.53)" xlink:href="data:image/png;base64,iVBORw0KGgoAAAANSUhEUgAAAB0AAAAYCAYAAAAGXva8AAAACXBIWXMAAAsSAAALEgHS3X78AAABn0lEQVRIS7WWO07EMBCGPycBFi1INBRIVCCBxD04APeggI4b0FIi7Rk4ByU9NRIVEiABC3mYYmY22ayziXaTT7Imjh+/Zzx24rz3BLgC3oEpkAI54IEC+AW+1WbAU2iCZSS1+i3wiQjtIpOm9UHIAiK1p2qfA/2CVEXvEJGR2gJwwENtzLm25Vr3Wo6RCLzSgtPw3iOT5MjAm2WDKpwhC/TAl9qplp+mQc57P0FWDhLKy6bOLRwgC04ptyS0NURIODe1vqoglGH1FVvPGUBErZjwOnywGNYF4QTYR/bjot64BinzYjFl4hGpHdM/mVoLd2wNFtYN4JH+ycrHmTgJw3jZRAQUCeJpjGTxEOSU2wiIpztqYyShhvC8QJwrgMhupDd9uUU/RyfEntrI0nqMeGuXuAuNWpPZ9pnoiPKCh2GEt9EMrh5g89LoW/gQ+AOyuawKEPzCr8gJcAQkruHPof6yD489cA28NIlapzqrilfncsvCGxKwv4SuBPsHv3cVHGGRtvA3LcxBuyjMH6Mmung/W1gXUaPqTRcRY2Gb/gFc3W7IPqjnYgAAAABJRU5ErkJggg=="/><image width="29" height="22" transform="translate(6.98 13.53)" xlink:href="data:image/png;base64,iVBORw0KGgoAAAANSUhEUgAAAB0AAAAWCAYAAAA8VJfMAAAACXBIWXMAAAsSAAALEgHS3X78AAABnElEQVRIS7XVP28TQRAF8N8Zk8QhAQlRIVoKPgWio6KiQ5SInpYvggQFDVUKanpES4NESQ9CRJAcWGAfxezizcV3/suTTrtev7m3b3Z2rmqaxgb4iKsYYR8XOnhV+WPYQVqEI1zBb5ymtf1uuuysYjXRl7iIQRrz7k9wueBVZiJtNKiWFX2BaXoq4RC+4fYc/pl0am2iWnCmz8QLBunZSeODvqA5yCKv0PQ5fYIfZqlr8LCb3osKT9O8U/Q+vuKSEJ3icQd3WdR6CukufgmhU5uLZfyR9NpnelO4uyEq9PW50PXwSLjcwaB0eogv2MUx3p6PXRu1MDPG8yx6YFZhx/gwJ3Bd3EtjLbL3L70HBenE9nBHtMZDcZ5HxJ37n/iexho/8+JQ5Dpjmy5vieKpRQG9yX/kM93oU9PC9WJeY4J3JWHb6b0mRIi7PsH7NmnZhr8IZaucCDNjfJpHHto8tXtmQlNRrRN87gpoOx0pqqwHux3rU/G560W+p6NibVrMx2nsEskYWG6zONt796yX6rEV0W74ixxlrCxU4i/odl+FanRguQAAAABJRU5ErkJggg=="/></g></g></g></g></svg>
